source/img/footer/you-tube.svg

<svg width="25" height="19" viewBox="0 0 25 19" fill="none" xmlns="http://www.w3.org/2000/svg">
<path d="M16.3509 8.79275L11.1145 5.30184C11.0159 5.23691 10.9016 5.19985 10.7837 5.19459C10.6657 5.18934 10.5486 5.21608 10.4446 5.27198C10.3406 5.32789 10.2537 5.41087 10.193 5.51215C10.1324 5.61343 10.1002 5.72924 10.1 5.84729V12.8291C10.1001 12.9481 10.1327 13.0648 10.1942 13.1667C10.2557 13.2686 10.3438 13.3518 10.4491 13.4073C10.5524 13.4631 10.6691 13.4895 10.7864 13.4837C10.9037 13.478 11.0172 13.4402 11.1145 13.3746L16.3509 9.88366C16.4409 9.82395 16.5148 9.7429 16.5658 9.64772C16.6169 9.55255 16.6436 9.44621 16.6436 9.3382C16.6436 9.23019 16.6169 9.12385 16.5658 9.02868C16.5148 8.93351 16.4409 8.85245 16.3509 8.79275ZM11.4091 11.6073V7.06911L14.8127 9.3382L11.4091 11.6073ZM23.8891 3.04366C23.7942 2.67547 23.6131 2.33511 23.3609 2.05061C23.1086 1.76611 22.7924 1.54561 22.4382 1.40729C18.7182 -0.0217993 12.7509 1.91553e-05 12.5 1.91553e-05C12.2491 1.91553e-05 6.28182 -0.0217993 2.56182 1.40729C2.20764 1.54561 1.8914 1.76611 1.63914 2.05061C1.38689 2.33511 1.20584 2.67547 1.11091 3.04366C0.827273 4.11275 0.5 6.07638 0.5 9.3382C0.5 12.6 0.827273 14.5637 1.11091 15.6327C1.20584 16.0009 1.38689 16.3413 1.63914 16.6258C1.8914 16.9103 2.20764 17.1308 2.56182 17.2691C6.28182 18.6982 12.2491 18.6764 12.5 18.6764H12.5764C13.3291 18.6764 18.8927 18.6327 22.4382 17.2691C22.7924 17.1308 23.1086 16.9103 23.3609 16.6258C23.6131 16.3413 23.7942 16.0009 23.8891 15.6327C24.1727 14.5637 24.5 12.6 24.5 9.3382C24.5 6.07638 24.1727 4.11275 23.8891 3.04366ZM22.6236 15.3055C22.5807 15.472 22.499 15.6259 22.3853 15.7548C22.2715 15.8838 22.1289 15.984 21.9691 16.0473C18.4782 17.3891 12.5655 17.3673 12.5 17.3673C12.4345 17.3673 6.52182 17.3891 3.03091 16.0473C2.87107 15.984 2.72846 15.8838 2.61471 15.7548C2.50096 15.6259 2.41929 15.472 2.37636 15.3055C2.11455 14.3018 1.80909 12.4582 1.80909 9.3382C1.80909 6.2182 2.11455 4.37457 2.37636 3.37093C2.41929 3.20445 2.50096 3.05047 2.61471 2.92156C2.72846 2.79264 2.87107 2.69243 3.03091 2.62911C6.52182 1.28729 12.4345 1.30911 12.5 1.30911C12.5655 1.30911 18.4782 1.28729 21.9691 2.62911C22.1289 2.69243 22.2715 2.79264 22.3853 2.92156C22.499 3.05047 22.5807 3.20445 22.6236 3.37093C22.8855 4.37457 23.1909 6.2182 23.1909 9.3382C23.1909 12.4582 22.8855 14.3018 22.6236 15.3055Z" fill="#666666"/>
</svg>

<svg xmlns="http://www.w3.org/2000/svg" width="25" height="19" fill="none"><path fill="#666" d="m16.35 8.8-5.24-3.5a.65.65 0 0 0-1.01.55v6.98a.65.65 0 0 0 1.01.54l5.24-3.49a.65.65 0 0 0 0-1.09Zm-4.94 2.8V7.08l3.4 2.27-3.4 2.27Zm12.48-8.56a2.4 2.4 0 0 0-1.45-1.63C18.72-.02 12.75 0 12.5 0S6.28-.02 2.56 1.4a2.4 2.4 0 0 0-1.45 1.64 25.32 25.32 0 0 0-.61 6.3c0 3.26.33 5.22.61 6.3a2.4 2.4 0 0 0 1.45 1.63c3.72 1.43 9.69 1.4 9.94 1.4h.08c.75 0 6.31-.04 9.86-1.4a2.4 2.4 0 0 0 1.45-1.64c.28-1.07.61-3.03.61-6.3 0-3.25-.33-5.22-.61-6.29Zm-1.27 12.27a1.1 1.1 0 0 1-.65.74c-3.5 1.34-9.4 1.32-9.47 1.32-.07 0-5.98.02-9.47-1.32a1.09 1.09 0 0 1-.65-.74c-.27-1-.57-2.85-.57-5.97 0-3.12.3-4.97.57-5.97a1.1 1.1 0 0 1 .65-.74c3.5-1.34 9.4-1.32 9.47-1.32.07 0 5.98-.02 9.47 1.32a1.1 1.1 0 0 1 .65.74c.27 1 .57 2.85.57 5.97 0 3.12-.3 4.96-.57 5.97Z"/></svg>
